X: 3430
T: Best Of Friends
R: slip jig
M: 9/8
K: Gmajor
~G3 BAB dgf|e2c c2e gfe|dgd ~B3 dcB|AFD DFA cBA|
GFG BGB dgf|e2c c2e gfe|deg faf g2b|ede faf g2f||
e2B ~B3 gfe|faf ~B3 agf|gfe d2c BA^G|A2B c2^c d2^d|
ege ~B3 gfe|faf ~B3 agf|gfe d2c BA^G|A2B c2^c dBA||

